X:1
T:Dance Hall Kate
L:1/8
M:2/2
I:linebreak $
K:A
V:1 treble 
V:1
 agba e^dfe | cBdc AECD | EFGA BcBG | ABcf e2 (3efg | agba e^dfe |$ cBdc AECD | EFGA BcBG | %7
 AcEC A,2 z2 :: ecAc ecAc | fcAc fcAc |$ ecAc ecAc | BcBA GEAc | ecAc ecAc | fcAc fcAc | %14
 e^dfe =dBGE |$ Acec a2 z2 :| %16
